X: 42257
T: We're A Case (The Bunch Of Us)
R: waltz
M: 3/4
K: Dmajor
|:Bg gd BB|Bg gB BA|Bg ge ed|dB BA AG:|
|:Bd dB BB|Be ed dB|de eG GG|Ge dB AG:|
|:AB BA BB|AB BA Be|GB BA B2|Be dB AG:|
Gg ge ed|dB BA Be|ed dB de|ed dB BA|
Bg ge ed|dB BA Be|ed dB BA|AG G4||
|:Fd dA FF|Fd dF FE|Fd dB BA|AF FE ED:|
|:FA AF FF|FB BA AF|AB BD DD|DB AF ED:|
|:EF FE FF|EF FE FB|DF FE F2|FB AF ED:|
Dd dB BA|AF FE FB|BA AF AB|BA AF FE|
Fd dB BA|AF FE FB|BA AF FE|ED D4||

